X:5
T: WER LIEBEN WILL MUSS LEIDEN
N: E0617B
O: Europa, Mitteleuropa, Deutschland; Frankreich, Elsass
R: Liebes - Lied
M: 3/4
L: 1/8
K: A
E2 | A4C2 | F4E2 | E2D2z2 | z4
G2 | B4E2 | F4G2 | A4z2 | z4
E2 | c4B2 | A4G2 | B2F2z2 | z4
AF | E2G2B2 | d2c2B2 | A4B2 | c4
E2 | c4B2 | A4G2 | B2F2z2 | z4
AF | E2G2B2 | d2c2B2 | A6- | A2z2

@@@ Tune index: 4318
